assets/images/InstaRing.svg

<svg xmlns="http://www.w3.org/2000/svg" width="11.434" height="11.434" viewBox="0 0 11.434 11.434">
  <g id="InstaRing" transform="translate(-0.003 -0.003)">
    <path id="Path_15131" data-name="Path 15131" d="M5.72,11.22h0a5.5,5.5,0,1,1,5.5-5.5A5.5,5.5,0,0,1,5.72,11.22Z" fill="none" stroke="#605c68" stroke-miterlimit="10" stroke-width="0.434"/>
    <path id="Path_15132" data-name="Path 15132" d="M5.72,2.7c-.82,0-.92,0-1.24.02a2.489,2.489,0,0,0-.74.14,1.4,1.4,0,0,0-.53.35,1.575,1.575,0,0,0-.35.53,2.26,2.26,0,0,0-.14.74c-.01.32-.02.42-.02,1.24s0,.92.02,1.24a2.26,2.26,0,0,0,.14.74,1.4,1.4,0,0,0,.35.53,1.483,1.483,0,0,0,.53.35,2.489,2.489,0,0,0,.74.14c.32.01.42.02,1.24.02s.92,0,1.24-.02a2.629,2.629,0,0,0,.74-.14,1.575,1.575,0,0,0,.53-.35,1.483,1.483,0,0,0,.35-.53,2.558,2.558,0,0,0,.14-.74c.01-.32.02-.42.02-1.24s0-.92-.02-1.24a2.558,2.558,0,0,0-.14-.74,1.585,1.585,0,0,0-.88-.88,2.629,2.629,0,0,0-.74-.14c-.32-.01-.42-.02-1.24-.02m0,.55c.81,0,.9,0,1.22.02a1.685,1.685,0,0,1,.56.1.93.93,0,0,1,.57.57,1.685,1.685,0,0,1,.1.56c.02.32.02.41.02,1.22s0,.9-.02,1.22a1.685,1.685,0,0,1-.1.56.93.93,0,0,1-.57.57,1.685,1.685,0,0,1-.56.1c-.32.02-.41.02-1.22.02s-.9,0-1.22-.02a1.685,1.685,0,0,1-.56-.1.93.93,0,0,1-.57-.57,1.685,1.685,0,0,1-.1-.56c-.02-.32-.02-.41-.02-1.22s0-.9.02-1.22a1.685,1.685,0,0,1,.1-.56.988.988,0,0,1,.22-.35.907.907,0,0,1,.35-.22,1.685,1.685,0,0,1,.56-.1c.32-.02.41-.02,1.22-.02" fill="#605c68"/>
    <path id="Path_15133" data-name="Path 15133" d="M5.72,6.73A1.01,1.01,0,1,1,6.73,5.72,1.007,1.007,0,0,1,5.72,6.73m0-2.56A1.55,1.55,0,1,0,7.27,5.72,1.545,1.545,0,0,0,5.72,4.17" fill="#605c68"/>
    <path id="Path_15134" data-name="Path 15134" d="M7.69,4.11a.36.36,0,1,1-.36-.36.359.359,0,0,1,.36.36" fill="#605c68"/>
  </g>
</svg>

<?xml version="1.0" encoding="utf-8"?>
<!-- Generator: Adobe Illustrator 26.2.1, SVG Export Plug-In . SVG Version: 6.00 Build 0)  -->
<svg version="1.1" id="Layer_1" xmlns="http://www.w3.org/2000/svg" xmlns:xlink="http://www.w3.org/1999/xlink" x="0px" y="0px"
	 viewBox="0 0 11.44 11.44" style="enable-background:new 0 0 11.44 11.44;" xml:space="preserve">
<style type="text/css">
	.st0{fill:none;stroke:#605C68;stroke-width:0.434;stroke-miterlimit:10;}
	.st1{fill:#605C68;}
</style>
<g>
	<path class="st0" d="M5.72,11.22L5.72,11.22c-3.04,0-5.5-2.46-5.5-5.5c0-3.04,2.46-5.5,5.5-5.5s5.5,2.46,5.5,5.5
		C11.22,8.76,8.76,11.22,5.72,11.22z"/>
	<path class="st1" d="M5.72,2.7c-0.82,0-0.92,0-1.24,0.02C4.15,2.74,3.93,2.79,3.74,2.86c-0.2,0.08-0.37,0.18-0.53,0.35
		C3.04,3.38,2.94,3.55,2.86,3.74C2.79,3.94,2.73,4.15,2.72,4.48C2.71,4.8,2.7,4.9,2.7,5.72c0,0.82,0,0.92,0.02,1.24
		C2.73,7.29,2.79,7.5,2.86,7.7c0.08,0.2,0.18,0.37,0.35,0.53C3.38,8.4,3.54,8.5,3.74,8.58C3.93,8.65,4.15,8.7,4.48,8.72
		C4.8,8.73,4.9,8.74,5.72,8.74s0.92,0,1.24-0.02C7.28,8.7,7.5,8.65,7.7,8.58C7.89,8.5,8.06,8.4,8.23,8.23C8.4,8.06,8.5,7.9,8.58,7.7
		C8.65,7.5,8.7,7.29,8.72,6.96c0.01-0.32,0.02-0.42,0.02-1.24c0-0.82,0-0.92-0.02-1.24C8.7,4.15,8.65,3.94,8.58,3.74
		C8.5,3.55,8.4,3.38,8.23,3.21C8.06,3.04,7.89,2.94,7.7,2.86C7.5,2.79,7.28,2.74,6.96,2.72C6.64,2.71,6.54,2.7,5.72,2.7 M5.72,3.25
		c0.81,0,0.9,0,1.22,0.02c0.29,0.01,0.45,0.06,0.56,0.1c0.14,0.05,0.24,0.12,0.35,0.22C7.95,3.7,8.02,3.8,8.07,3.94
		c0.04,0.11,0.09,0.27,0.1,0.56c0.02,0.32,0.02,0.41,0.02,1.22c0,0.81,0,0.9-0.02,1.22C8.16,7.23,8.11,7.39,8.07,7.5
		C8.02,7.64,7.95,7.74,7.85,7.85C7.74,7.95,7.64,8.02,7.5,8.07c-0.11,0.04-0.27,0.09-0.56,0.1C6.62,8.19,6.53,8.19,5.72,8.19
		s-0.9,0-1.22-0.02c-0.29-0.01-0.45-0.06-0.56-0.1C3.8,8.02,3.7,7.95,3.59,7.85C3.49,7.74,3.42,7.64,3.37,7.5
		c-0.04-0.11-0.09-0.27-0.1-0.56C3.25,6.62,3.25,6.53,3.25,5.72c0-0.81,0-0.9,0.02-1.22c0.01-0.29,0.06-0.45,0.1-0.56
		C3.42,3.8,3.49,3.7,3.59,3.59c0.1-0.1,0.21-0.17,0.35-0.22c0.11-0.04,0.27-0.09,0.56-0.1C4.82,3.25,4.91,3.25,5.72,3.25"/>
	<path class="st1" d="M5.72,6.73c-0.56,0-1.01-0.45-1.01-1.01c0-0.56,0.45-1.01,1.01-1.01s1.01,0.45,1.01,1.01
		C6.73,6.28,6.27,6.73,5.72,6.73 M5.72,4.17c-0.86,0-1.55,0.69-1.55,1.55c0,0.86,0.69,1.55,1.55,1.55s1.55-0.69,1.55-1.55
		C7.27,4.86,6.58,4.17,5.72,4.17"/>
	<path class="st1" d="M7.69,4.11c0,0.2-0.16,0.36-0.36,0.36c-0.2,0-0.36-0.16-0.36-0.36c0-0.2,0.16-0.36,0.36-0.36
		C7.53,3.75,7.69,3.91,7.69,4.11"/>
</g>
</svg>
